icon_installer/data/icons/scalable/actions/show-cross-filled-large-symbolic.svg

<?xml version="1.0" encoding="UTF-8"?>
<svg height="16px" viewBox="0 0 16 16" width="16px" xmlns="http://www.w3.org/2000/svg">
    <path d="m 2.976562 1 c -1.09375 0 -1.976562 0.882812 -1.976562 1.976562 v 10.050782 c 0 1.089844 0.882812 1.972656 1.976562 1.972656 h 10.050782 c 1.089844 0 1.972656 -0.882812 1.972656 -1.972656 v -10.050782 c 0 -1.09375 -0.882812 -1.976562 -1.972656 -1.976562 z m 0.023438 2 h 1 h 0.03125 c 0.253906 0.011719 0.511719 0.128906 0.6875 0.3125 l 3.261719 3.28125 l 3.332031 -3.28125 c 0.265625 -0.230469 0.445312 -0.304688 0.6875 -0.3125 h 1 v 1 c 0 0.285156 -0.035156 0.550781 -0.25 0.75 l -3.300781 3.28125 l 3.269531 3.25 c 0.1875 0.1875 0.28125 0.453125 0.28125 0.71875 v 1 h -1 c -0.265625 0 -0.53125 -0.09375 -0.71875 -0.28125 l -3.300781 -3.28125 l -3.261719 3.28125 c -0.1875 0.1875 -0.453125 0.28125 -0.71875 0.28125 h -1 v -1 c 0 -0.265625 0.09375 -0.53125 0.28125 -0.71875 l 3.261719 -3.25 l -3.261719 -3.28125 c -0.210938 -0.195312 -0.304688 -0.46875 -0.28125 -0.75 z m 0 0" fill="#222222"/>
</svg>

<svg xmlns="http://www.w3.org/2000/svg" width="16" height="16"><path fill="#222" d="M2.977 1A1.974 1.974 0 0 0 1 2.977v10.05C1 14.117 1.883 15 2.977 15h10.05c1.09 0 1.973-.883 1.973-1.973V2.977A1.973 1.973 0 0 0 13.027 1zM3 3h1.031c.254.012.512.129.688.313l3.261 3.28 3.332-3.28c.266-.231.446-.305.688-.313h1v1c0 .285-.035.55-.25.75l-3.3 3.281 3.269 3.25c.187.188.281.453.281.719v1h-1c-.266 0-.531-.094-.719-.281l-3.3-3.281-3.262 3.28A1.016 1.016 0 0 1 4 13H3v-1c0-.266.094-.531.281-.719l3.262-3.25L3.281 4.75A.904.904 0 0 1 3 4zm0 0"/></svg>
